assets/icons/qvision/phone_callback.svg

<svg width="24" height="24" viewBox="0 0 24 24" fill="none" xmlns="http://www.w3.org/2000/svg">
<g clip-path="url(#clip0_147_5992)">
<path d="M6.62 10.79C8.06 13.62 10.38 15.93 13.21 17.38L15.41 15.18C15.68 14.91 16.08 14.82 16.43 14.94C17.55 15.31 18.76 15.51 20 15.51C20.55 15.51 21 15.96 21 16.51V20C21 20.55 20.55 21 20 21C10.61 21 3 13.39 3 3.99999C3 3.44999 3.45 2.99999 4 2.99999H7.5C8.05 2.99999 8.5 3.44999 8.5 3.99999C8.5 5.24999 8.7 6.44999 9.07 7.56999C9.18 7.91999 9.1 8.30999 8.82 8.58999L6.62 10.79ZM20.16 3.68999L19.45 2.98999L13 9.28999V4.99999H12V11H18V9.99999H13.85L20.16 3.68999Z" fill="#323232"/>
</g>
<defs>
<clipPath id="clip0_147_5992">
<rect width="24" height="24" fill="white"/>
</clipPath>
</defs>
</svg>

<svg xmlns="http://www.w3.org/2000/svg" height="24" viewBox="0 0 24 24" width="24"><path d="M0 0h24v24H0z" fill="none"/><path d="M6.62 10.79c1.44 2.83 3.76 5.14 6.59 6.59l2.2-2.2c.27-.27.67-.36 1.02-.24 1.12.37 2.33.57 3.57.57.55 0 1 .45 1 1V20c0 .55-.45 1-1 1-9.39 0-17-7.61-17-17 0-.55.45-1 1-1h3.5c.55 0 1 .45 1 1 0 1.25.2 2.45.57 3.57.11.35.03.74-.25 1.02l-2.2 2.2zm13.54-7.1l-.71-.7L13 9.29V5h-1v6h6v-1h-4.15z"/></svg>
